X:1
T:Title
%%score ( 1 2 ) 3
L:1/8
Q:1/4=140
M:3/2
K:Ab
V:1 treble nm="Strings 1, Soprano"
V:2 treble 
V:3 bass nm="Strings 1, Bass"
V:1
 z4 z4 [CE]3 [CE] | [CE]6 [CE]2 [DF]2 [DA]2 | [CE]8 [CA]3 [CA] | [CA]6 [CE]2 [EA]2 [Ec]2 | %4
w: 1.~There's~ a~|hap py~ world~ a|bove,~ Where~ there's~|joy,~ and~ peace,~ and~|
 B4- [DB]4 [CE]3 [CE] | [CE]6 [CE]2 [CA]2 [DF]2 | [CE]8 [EA]3 [FB] | [Ec]6 [Ed]2 [DB]3 [Ec] | %8
w: love;~ * We~ are~|go ing~ to~ that~|world,~ To~ that~|hap py~ world~ a|
 [CA]8 [Ee]3 [Ee] | [Ee]6 [Ec]2 [Ed]2 [Ee]2 | [Ec]8 [CE]3 [CE] | [CA]6 [Ec]2 [Ec]2 [EA]2 | %12
w: bove.~ There~ is~|full,~ su preme~ de|light,~ In~ those~|man sions~ fair~ and~|
 [EB]8 [Ec]3 [DB] | [CA]6 [CE]2 [DA]2 [DF]2 | [CE]8 [EA]3 [FB] | [Ec]6 [Ed]2 [DB]3 [Ec] | %16
w: bright,~ With~ their~|pure,~ ce les tial~|light,~ In~ that~|hap py~ world~ a|
 [CA]8 z4 |] %17
w: bove.~|
V:2
 x12 | x12 | x12 | x12 | E4 z4 z4 | x12 | x12 | x12 | x12 | x12 | x12 | x12 | x12 | x12 | x12 | %15
 x12 | x12 |] %17
V:3
 z4 z4 [A,,A,]3 [A,,A,] | [A,,A,]6 [A,,A,]2 [D,A,]2 [F,A,]2 | A,8 [A,,E,]3 [A,,E,] | %3
 [A,,E,]6 [A,,A,]2 [C,A,]2 [A,,A,]2 | [E,G,]8 [A,,A,]3 [A,,A,] | %5
 [A,,A,]6 [A,,A,]2 [A,,E,]2 [A,,A,]2 | [A,,A,]8 [C,A,]3 [D,A,] | [E,A,]6 [E,B,]2 [E,G,]3 [E,G,] | %8
 [A,,A,]8 [A,C]3 [A,C] | [A,C]6 A,2 [A,B,]2 [A,C]2 | A,8 [A,,A,]3 [A,,A,] | %11
 [A,,E,]6 [A,,A,]2 [A,,A,]2 [C,A,]2 | [E,G,]8 [A,,A,]3 [A,,E,] | %13
 [A,,E,]6 [A,,_G,]2 [D,F,]2 [D,A,]2 | [A,,A,]8 [C,A,]3 [D,A,] | [E,A,]6 [E,B,]2 [E,G,]3 [E,G,] | %16
 [A,,A,]8 z4 |] %17

